src/assets/whiteboard_icons/eraser.svg

<svg fill="none" height="22" viewBox="0 0 26 22" width="26" xmlns="http://www.w3.org/2000/svg"><g fill="#343440"><path clip-rule="evenodd" d="m3.20337 21.0969c0-.4987.40168-.903.89717-.903h12.11186c.4955 0 .8972.4043.8972.903 0 .4988-.4017.9031-.8972.9031h-12.11186c-.49549 0-.89717-.4043-.89717-.9031z" fill-rule="evenodd"/><path clip-rule="evenodd" d="m1.5269 15.6656c-.776977.7851-.780256 2.0612-.00732 2.8503l2.52825 2.581h2.79932l-3.92072-4.0026 13.99177-14.13778 6.1555 6.28405-11.7339 11.85633h2.8136l10.3198-10.4276c.777-.78507.7803-2.06119.0073-2.85027l-6.1555-6.28405c-.7729-.789074-2.0294-.792305-2.8064-.00721z" fill-rule="evenodd"/><path d="m7.90753 12.0101c-.38647-.3946-.38483-1.0326.00366-1.4252l8.55511-8.64438c.3884-.39254 1.0167-.39093 1.4031.00361l6.1556 6.28405c.3864.39454.3848 1.0326-.0037 1.42514l-8.5551 8.64438c-.3885.3926-1.0167.3909-1.4032-.0036z"/></g></svg>

<svg width="26" height="22" viewBox="0 0 26 22" fill="none" xmlns="http://www.w3.org/2000/svg">
<path fill-rule="evenodd" clip-rule="evenodd" d="M3.20337 21.0969C3.20337 20.5982 3.60505 20.1939 4.10054 20.1939H16.2124C16.7079 20.1939 17.1096 20.5982 17.1096 21.0969C17.1096 21.5957 16.7079 22 16.2124 22H4.10054C3.60505 22 3.20337 21.5957 3.20337 21.0969Z" fill="#343440"/>
<path fill-rule="evenodd" clip-rule="evenodd" d="M1.5269 15.6656C0.749923 16.4507 0.746644 17.7268 1.51958 18.5159L4.04783 21.0969H6.84715L2.92643 17.0943L16.9182 2.95652L23.0737 9.24057L11.3398 21.0969H14.1534L24.4732 10.6693C25.2502 9.88423 25.2535 8.60811 24.4805 7.81903L18.325 1.53498C17.5521 0.745906 16.2956 0.742675 15.5186 1.52777L1.5269 15.6656Z" fill="#343440"/>
<path d="M7.90753 12.0101C7.52106 11.6155 7.5227 10.9775 7.91119 10.5849L16.4663 1.94052C16.8547 1.54798 17.483 1.54959 17.8694 1.94413L24.025 8.22818C24.4114 8.62272 24.4098 9.26078 24.0213 9.65332L15.4662 18.2977C15.0777 18.6903 14.4495 18.6886 14.063 18.2941L7.90753 12.0101Z" fill="#343440"/>
</svg>
